X:1
T:Aften vid fjorden
T:W. Peterson-Berger (1867-1942)
T:Aften ved fjorden
T:Text: J. Moe
T:©CPDL Edition may be freely distributed, duplicated, performed and recorded PA Aglert
T:©CPDL Edition may be freely distributed, duplicated, performed and recorded PA Aglert
T:©CPDL Edition may be freely distributed, duplicated, performed and recorded PA Aglert
C:W. Peterson-Berger (1867-1942)
Z:©CPDL Edition may be freely distributed, duplicated, performed and recorded
Z:PA Aglert
%%score [ ( 1 2 ) ( 3 4 ) ]
L:1/8
Q:1/4=120
M:9/8
K:D
V:1 treble nm="S A"
V:2 treble 
V:3 bass nm="T B"
V:4 bass 
V:1
"^Tranquillo"!p!!<(! D F2 G!<)! | A3 F2 A G2 ^G |!<(! A3- A2!<)! A c2 B | %3
w: Nu syn- ker|af- te- nen sag- te|ned * med gyl- den|
w: Se fis- ker-|bå- den hvor slank och|let, * höjt på den|
w: Men södt hen-|sun- ken en pi- ge|står * og fre- mad|
w: Du ri- ge,|röd- men- de som- mer-|nat, * der e- jer|
!>(! B3!>)!!<(! A2!<)! ^A B2 F |!>(! A3 G2!>)! G F2 E | E3 D2 D E2 F | %6
w: röd- me på sö og|li- er og lyd- lös|taus- hed og yn- dig|
w: glim- ren- de fla- de|bå- ren, hvor kar- len|bö- jer sig mod sit|
w: ser i den kla- re|him- mel, mens læng- sels-|vakt hen- nes tan- ke|
w: mer end de ly- se|da- ge, o, bring den|fag- re din bed- ste|
!<(! G3- G2!<)! B!f! f2!>(! e!>)! | d3!<(! F2 A!<)!!>(! c2 B |[M:3/4] B2!p! A!>)!A AA | %9
w: fred * till ro- lig|slum- mer na- tu- ren|vi- er. De grön- ne|
w: net, * mens stil- le|pi- ger- ne hol- de|år- ren. Den tau- se|
w: går * till ju- le-|le- gen och dan- sens|vrim- mel. Den rö- de|
w: skat, * lad- dröm- men|kjær- lig till hen- de|dra- ge: når snart de|
 (_B>=c) BB BB | =c2 =Cc cc | !courtesy!^c2 Cc cc |!mf! d2 D!>!F !>!d!>!=c | =F2 DF GA | %14
w: stran- * de sig stil- le|blan- de i sö- ens|speil med de blan- ke|van- de, de grön- ne|stran- de sig stil- le|
w: ta- * le fra sö och|da- le al da- gens|hi- gen har kun- net|sva- le, den tau- se|ta- le fra sö och|
w: lu- * e på aft- nens|bu- e har kas- tet|fun- ker, vi kan ej|sku- e. Den rö- de|lu- e på aft- nens|
w: lan- * de ved grön- ne|stran- de, læg söl- ver-|kro- nen om hen- des|pan- de, når snart de|lan- de ved grön- ne|
 (_B>=c) B!>(!D E^E!>)! |!pp!!<(! !courtesy!^F2!<)! !courtesy!^c!p!B (3:2:2A2 F | %16
w: blan- * de i sö- ens|speil med de blan- ke|
w: da- * le al da- gens|hi- gen har kun- net|
w: bu- * e har kas- tet|fun- ker; vi kan ej|
w: stran- * de, læg söl- ver-|kro- nen om hen- des|
!>(! E2 D2 D2!>)! |!pp! E6 | G6 | !fermata!F6 |] %20
w: van- de, der|fang-|e|dem.|
w: sva- le och|bin-|de|dem.|
w: sku- e. Hun|stir-|rer|ud:|
w: pan- de som|sa-|lig||
V:2
 D D2 E | F3 D2 F E2 ^E | F3- F2 F F2 F | !courtesy!=E3 E2 E ^D2 D | F3 E2 E !courtesy!=D2 C | %5
 C3 B,2 D D2 D | D3- D2 G G2 G | F3 D2 F G2 G |[M:3/4] G2 GG GG | =F2 FF FF | E2 EE EE | E2 EE EE | %12
 (F>G) FF E_E | D2 =FF _B,F | _B,2 B,D DD | D2 DD (3:2:2C2 C | C2 B,2 D2 | D6 | C6 | D6 |] %20
V:3
!p!!<(! D D2 D!<)! | D3 D2 D D2 D |!<(! D3- D2!<)! D D2 D |!>(! C3!>)!!<(! C2 =C!<)! B,2 B, | %4
!>(! B,3 B,2!>)! B, ^A,2 A, | B,3 D2 B, B,2 B, |!<(! B,3- B,2!<)! D!f! C2!>(! C | %7
 D3!>)!!<(! D2 D!<)!!>(! D2 D!>)! |[M:3/4] D2!p! CC CC | D2 DD DD |!mf! (_B,>=C) B,B, B,B, | %11
!mf! _B,2 B,B, B,B, | _B,2 B,=F, G,A, | _B,>=C B,!>!^F, !>!D!>!C | =F,2 D,!>(!F, G,^G,!>)! | %15
!pp!!<(! A,2!<)! F,!p!F, (3:2:2G,2 G, |!>(! F,2 F,2!>)! F,2 |!pp! B,6 | A,6 | A,6 |] %20
V:4
 D, D2 C | =C3 C2 C B,2 _B, | A,3- A,2 A, ^G,2 G, | !courtesy!=G,3 G,2 G, F,2 F, | %4
 E,3 E,2 E, F,2 F, | B,3 B,2 A, G,2 F, | E,3- E,2 E, A,,2 ^A,, | B,,3 B,2 B, E,2 E, | %8
[M:3/4] A,2 A,A, A,A, | _A,2 A,A, A,A, | G,2 G,G, G,G, | (_G,>_A,) G,G, G,G, | =F,2 F,F, F,F, | %13
 =F,2 F,=F, E,_E, | D,2 =F,_B,, B,,B,, | A,,2 A,,A,, (3:2:2A,,2 A,, | B,,2 B,,2 B,,2 | G,,6 | %18
 A,,6 | !fermata!D,6 |] %20

